static/cards/FrenchDeck/default/card_spades_A.svg

<svg width="219" height="304" viewBox="0 0 219 304" fill="none" xmlns="http://www.w3.org/2000/svg">
<g filter="url(#filter0_d_18_640)">
<g clip-path="url(#clip0_18_640)">
<rect x="8" y="4" width="203" height="288" rx="10" fill="white"/>
<path d="M16.1909 44.2603C15.1899 44.2603 14.5293 43.6797 14.5293 42.7588C14.5293 42.3584 14.6294 41.978 14.7896 41.4976L23.0176 18.4951C23.5181 17.0938 24.2188 16.4531 25.5 16.4531C26.7812 16.4531 27.4819 17.0938 27.9824 18.4951L36.2104 41.4976C36.3706 41.938 36.4707 42.3584 36.4707 42.7388C36.4707 43.6797 35.8101 44.2603 34.7891 44.2603C33.8281 44.2603 33.2876 43.7998 32.9072 42.6187L30.605 35.792H20.375L18.0728 42.6187C17.6924 43.8198 17.1519 44.2603 16.1909 44.2603ZM21.3159 32.9692H29.6641L25.5601 20.7974H25.4199L21.3159 32.9692Z" fill="#211C1D"/>
<path d="M24.2375 72C24.0275 72 23.8572 71.8365 23.8572 71.6348C23.8572 71.2053 24.9342 68.3825 25.1943 66.4832C25.2256 66.2548 24.9357 66.1637 24.8047 66.3495C24.177 67.2399 23.5441 68.1922 21.8225 68.2149C18.615 68.2572 16.7672 65.2101 17.7761 62.4373C18.2708 61.0778 25.0754 52 26 52C26.9245 52 33.7292 61.0778 34.2239 62.4373C35.2328 65.2101 33.385 68.2572 30.1775 68.2149C28.4559 68.1922 27.823 67.2399 27.1953 66.3495C27.0643 66.1637 26.7744 66.2548 26.8057 66.4832C27.0658 68.3825 28.1428 71.2053 28.1428 71.6348C28.1428 71.8365 27.9725 72 27.7625 72H24.2375Z" fill="#211C1D"/>
<path d="M202.809 251.74C203.81 251.74 204.471 252.32 204.471 253.241C204.471 253.642 204.371 254.022 204.21 254.502L195.982 277.505C195.482 278.906 194.781 279.547 193.5 279.547C192.219 279.547 191.518 278.906 191.018 277.505L182.79 254.502C182.629 254.062 182.529 253.642 182.529 253.261C182.529 252.32 183.19 251.74 184.211 251.74C185.172 251.74 185.712 252.2 186.093 253.381L188.395 260.208L198.625 260.208L200.927 253.381C201.308 252.18 201.848 251.74 202.809 251.74ZM197.684 263.031L189.336 263.031L193.44 275.203L193.58 275.203L197.684 263.031Z" fill="#211C1D"/>
<path d="M194.762 224C194.973 224 195.143 224.164 195.143 224.365C195.143 224.795 194.066 227.617 193.806 229.517C193.774 229.745 194.064 229.836 194.195 229.65C194.823 228.76 195.456 227.808 197.178 227.785C200.385 227.743 202.233 230.79 201.224 233.563C200.729 234.922 193.925 244 193 244C192.075 244 185.271 234.922 184.776 233.563C183.767 230.79 185.615 227.743 188.823 227.785C190.544 227.808 191.177 228.76 191.805 229.65C191.936 229.836 192.226 229.745 192.194 229.517C191.934 227.617 190.857 224.795 190.857 224.365C190.857 224.164 191.027 224 191.238 224L194.762 224Z" fill="#211C1D"/>
<path d="M105.353 172C104.859 172 104.458 171.608 104.458 171.123C104.458 170.093 106.992 163.318 107.604 158.76C107.678 158.211 106.996 157.993 106.688 158.439C105.211 160.576 103.721 162.861 99.6706 162.916C92.1234 163.017 87.7757 155.704 90.1497 149.05C91.3137 145.787 107.325 124 109.5 124C111.675 124 127.686 145.787 128.85 149.05C131.224 155.704 126.877 163.017 119.329 162.916C115.279 162.861 113.789 160.576 112.312 158.439C112.004 157.993 111.322 158.211 111.396 158.76C112.008 163.318 114.542 170.093 114.542 171.123C114.542 171.608 114.141 172 113.647 172H105.353Z" fill="#211C1D"/>
</g>
</g>
<defs>
<filter id="filter0_d_18_640" x="0" y="0" width="219" height="304" filterUnits="userSpaceOnUse" color-interpolation-filters="sRGB">
<feFlood flood-opacity="0" result="BackgroundImageFix"/>
<feColorMatrix in="SourceAlpha" type="matrix" values="0 0 0 0 0 0 0 0 0 0 0 0 0 0 0 0 0 0 127 0" result="hardAlpha"/>
<feOffset dy="4"/>
<feGaussianBlur stdDeviation="4"/>
<feComposite in2="hardAlpha" operator="out"/>
<feColorMatrix type="matrix" values="0 0 0 0 0.614771 0 0 0 0 0.70094 0 0 0 0 0.806257 0 0 0 1 0"/>
<feBlend mode="normal" in2="BackgroundImageFix" result="effect1_dropShadow_18_640"/>
<feBlend mode="normal" in="SourceGraphic" in2="effect1_dropShadow_18_640" result="shape"/>
</filter>
<clipPath id="clip0_18_640">
<rect x="8" y="4" width="203" height="288" rx="10" fill="white"/>
</clipPath>
</defs>
</svg>

<svg xmlns="http://www.w3.org/2000/svg" width="219" height="304" fill="none" viewBox="0 0 219 304"><g filter="url(#a)"><g clip-path="url(#b)"><rect width="203" height="288" x="8" y="4" fill="#fff" rx="10"/><path fill="#211c1d" d="M16.19 44.26c-1 0-1.66-.58-1.66-1.501 0-.4.1-.781.26-1.261l8.228-23.003c.5-1.401 1.2-2.042 2.482-2.042 1.281 0 1.982.64 2.482 2.042l8.228 23.003c.16.44.26.86.26 1.24 0 .942-.66 1.522-1.68 1.522-.962 0-1.502-.46-1.883-1.641l-2.302-6.827h-10.23l-2.302 6.827c-.38 1.2-.921 1.641-1.882 1.641m5.126-11.29h8.348L25.56 20.796h-.14zM24.238 72a.373.373 0 0 1-.38-.365c0-.43 1.076-3.253 1.336-5.152.032-.228-.258-.32-.39-.133-.627.89-1.26 1.842-2.981 1.865-3.208.042-5.056-3.005-4.047-5.778C18.271 61.077 25.076 52 26 52s7.73 9.078 8.224 10.437c1.009 2.773-.839 5.82-4.046 5.778-1.722-.023-2.355-.975-2.983-1.865-.13-.186-.42-.095-.39.133.26 1.9 1.338 4.722 1.338 5.152 0 .201-.17.365-.38.365zM202.809 251.74c1.001 0 1.662.58 1.662 1.501 0 .401-.1.781-.261 1.261l-8.228 23.003c-.5 1.401-1.201 2.042-2.482 2.042s-1.982-.641-2.482-2.042l-8.228-23.003c-.161-.44-.261-.86-.261-1.241 0-.941.661-1.521 1.682-1.521.961 0 1.501.46 1.882 1.641l2.302 6.827h10.23l2.302-6.827c.381-1.201.921-1.641 1.882-1.641m-5.125 11.291h-8.348l4.104 12.172h.14zM194.762 224c.211 0 .381.164.381.365 0 .43-1.077 3.252-1.337 5.152-.032.228.258.319.389.133.628-.89 1.261-1.842 2.983-1.865 3.207-.042 5.055 3.005 4.046 5.778C200.729 234.922 193.925 244 193 244s-7.729-9.078-8.224-10.437c-1.009-2.773.839-5.82 4.047-5.778 1.721.023 2.354.975 2.982 1.865.131.186.421.095.389-.133-.26-1.9-1.337-4.722-1.337-5.152 0-.201.17-.365.381-.365zM105.353 172a.886.886 0 0 1-.895-.877c0-1.03 2.534-7.805 3.146-12.363.074-.549-.608-.767-.916-.321-1.477 2.137-2.967 4.422-7.017 4.477-7.548.101-11.895-7.212-9.521-13.866 1.164-3.263 17.175-25.05 19.35-25.05s18.186 21.787 19.35 25.05c2.374 6.654-1.973 13.967-9.521 13.866-4.05-.055-5.54-2.34-7.017-4.477-.308-.446-.99-.228-.916.321.612 4.558 3.146 11.333 3.146 12.363a.886.886 0 0 1-.895.877z"/></g></g><defs><clipPath id="b"><rect width="203" height="288" x="8" y="4" fill="#fff" rx="10"/></clipPath><filter id="a" width="219" height="304" x="0" y="0" color-interpolation-filters="sRGB" filterUnits="userSpaceOnUse"><feFlood flood-opacity="0" result="BackgroundImageFix"/><feColorMatrix in="SourceAlpha" result="hardAlpha" values="0 0 0 0 0 0 0 0 0 0 0 0 0 0 0 0 0 0 127 0"/><feOffset dy="4"/><feGaussianBlur stdDeviation="4"/><feComposite in2="hardAlpha" operator="out"/><feColorMatrix values="0 0 0 0 0.614771 0 0 0 0 0.70094 0 0 0 0 0.806257 0 0 0 1 0"/><feBlend in2="BackgroundImageFix" result="effect1_dropShadow_18_640"/><feBlend in="SourceGraphic" in2="effect1_dropShadow_18_640" result="shape"/></filter></defs></svg>
